webofneeds/won-owner-webapp/src/main/webapp/images/won-icons/ico36_time_circle.svg

<?xml version="1.0" encoding="utf-8"?>
<!-- Generator: Adobe Illustrator 15.0.0, SVG Export Plug-In . SVG Version: 6.00 Build 0)  -->
<!DOCTYPE svg PUBLIC "-//W3C//DTD SVG 1.1//EN" "http://www.w3.org/Graphics/SVG/1.1/DTD/svg11.dtd">
<svg version="1.1" id="Layer_1" xmlns="http://www.w3.org/2000/svg" xmlns:xlink="http://www.w3.org/1999/xlink" x="0px" y="0px"
	 width="36px" height="36px" viewBox="0 0 36 36" enable-background="new 0 0 36 36" xml:space="preserve">
<g>
	<path fill="#FFFFFF" d="M18,35c9.374,0,17-7.626,17-17S27.374,1,18,1S1,8.626,1,18S8.626,35,18,35L18,35z"/>
	<g>
		<g>
			<defs>
				<path id="SVGID_1_" d="M18,36c9.941,0,18-8.059,18-18c0-9.941-8.059-18-18-18C8.059,0,0,8.059,0,18C0,27.941,8.059,36,18,36
					L18,36z"/>
			</defs>
			<clipPath id="SVGID_2_">
				<use xlink:href="#SVGID_1_"  overflow="visible"/>
			</clipPath>
			<path clip-path="url(#SVGID_2_)" fill="var(--local-primary)" d="M11.333,10.534C9.111,12.519,8,15.008,8,18c0,2.52,0.844,4.741,2.533,6.667
				C12.518,26.889,15.007,28,18,28c2.518,0,4.741-0.844,6.667-2.533C26.889,23.482,28,20.993,28,18c0-2.518-0.844-4.74-2.533-6.667
				C23.48,9.111,20.993,8,18,8C15.481,8,13.259,8.845,11.333,10.534L11.333,10.534L11.333,10.534z M13.067,24.089
				c-1.927-1.569-2.889-3.6-2.889-6.089c0-1.836,0.578-3.481,1.733-4.933c1.57-1.926,3.6-2.889,6.089-2.889
				c1.836,0,3.48,0.578,4.934,1.733c1.926,1.571,2.89,3.6,2.89,6.089c0,1.838-0.578,3.482-1.734,4.934
				c-1.569,1.928-3.601,2.89-6.088,2.89C16.163,25.822,14.518,25.244,13.067,24.089L13.067,24.089L13.067,24.089z M17.245,12.356
				v5.956L20.934,22L22,20.934l-3.245-3.245v-5.333H17.245L17.245,12.356z"/>
		</g>
	</g>
	<g>
		<g>
			<path fill="none" stroke="var(--local-primary)" stroke-width="2" d="M18,35c9.374,0,17-7.626,17-17S27.374,1,18,1S1,8.626,1,18
				S8.626,35,18,35L18,35z"/>
		</g>
	</g>
</g>
</svg>

<?xml version="1.0" encoding="UTF-8" standalone="no"?>
<!-- Generator: Adobe Illustrator 15.0.0, SVG Export Plug-In . SVG Version: 6.00 Build 0)  -->

<svg
   xmlns:dc="http://purl.org/dc/elements/1.1/"
   xmlns:cc="http://creativecommons.org/ns#"
   xmlns:rdf="http://www.w3.org/1999/02/22-rdf-syntax-ns#"
   xmlns:svg="http://www.w3.org/2000/svg"
   xmlns="http://www.w3.org/2000/svg"
   xmlns:xlink="http://www.w3.org/1999/xlink"
   xmlns:sodipodi="http://sodipodi.sourceforge.net/DTD/sodipodi-0.dtd"
   xmlns:inkscape="http://www.inkscape.org/namespaces/inkscape"
   version="1.1"
   id="Layer_1"
   x="0px"
   y="0px"
   width="36px"
   height="36px"
   viewBox="0 0 36 36"
   enable-background="new 0 0 36 36"
   xml:space="preserve"
   sodipodi:docname="ico36_time_circle.svg"
   inkscape:version="0.92.2 (5c3e80d, 2017-08-06)"><metadata
     id="metadata29"><rdf:RDF><cc:Work
         rdf:about=""><dc:format>image/svg+xml</dc:format><dc:type
           rdf:resource="http://purl.org/dc/dcmitype/StillImage" /><dc:title></dc:title></cc:Work></rdf:RDF></metadata><defs
     id="defs27" /><sodipodi:namedview
     pagecolor="#ffffff"
     bordercolor="#666666"
     borderopacity="1"
     objecttolerance="10"
     gridtolerance="10"
     guidetolerance="10"
     inkscape:pageopacity="0"
     inkscape:pageshadow="2"
     inkscape:window-width="1600"
     inkscape:window-height="837"
     id="namedview25"
     showgrid="false"
     inkscape:pagecheckerboard="true"
     inkscape:zoom="6.5555556"
     inkscape:cx="18"
     inkscape:cy="18"
     inkscape:window-x="-8"
     inkscape:window-y="-8"
     inkscape:window-maximized="1"
     inkscape:current-layer="Layer_1" /><path
     style="fill:none"
     inkscape:connector-curvature="0"
     id="path2"
     d="M 18,35 C 27.374,35 35,27.374 35,18 35,8.626 27.374,1 18,1 8.626,1 1,8.626 1,18 1,27.374 8.626,35 18,35 Z" /><g
     id="g14"><g
       id="g12"><defs
         id="defs5"><path
           inkscape:connector-curvature="0"
           d="M 18,36 C 27.941,36 36,27.941 36,18 36,8.059 27.941,0 18,0 8.059,0 0,8.059 0,18 0,27.941 8.059,36 18,36 Z"
           id="SVGID_1_" /></defs><clipPath
         id="SVGID_2_"><use
           height="100%"
           width="100%"
           y="0"
           x="0"
           style="overflow:visible"
           id="use7"
           overflow="visible"
           xlink:href="#SVGID_1_" /></clipPath><path
         inkscape:connector-curvature="0"
         id="path10"
         d="M 11.333,10.534 C 9.111,12.519 8,15.008 8,18 8,20.52 8.844,22.741 10.533,24.667 12.518,26.889 15.007,28 18,28 20.518,28 22.741,27.156 24.667,25.467 26.889,23.482 28,20.993 28,18 28,15.482 27.156,13.26 25.467,11.333 23.48,9.111 20.993,8 18,8 15.481,8 13.259,8.845 11.333,10.534 Z m 1.734,13.555 C 11.14,22.52 10.178,20.489 10.178,18 c 0,-1.836 0.578,-3.481 1.733,-4.933 1.57,-1.926 3.6,-2.889 6.089,-2.889 1.836,0 3.48,0.578 4.934,1.733 1.926,1.571 2.89,3.6 2.89,6.089 0,1.838 -0.578,3.482 -1.734,4.934 -1.569,1.928 -3.601,2.89 -6.088,2.89 -1.839,-0.002 -3.484,-0.58 -4.935,-1.735 z m 4.178,-11.733 v 5.956 L 20.934,22 22,20.934 18.755,17.689 v -5.333 z"
         fill="var(--local-primary)"
         clip-path="url(#SVGID_2_)" /></g></g><g
     id="g20"
     style="stroke:var(--local-primary);stroke-opacity:1;fill:none"><g
       id="g18"
       style="stroke:var(--local-primary);stroke-opacity:1;fill:none"><path
         style="fill:none;stroke-width:2;stroke:var(--local-primary);stroke-opacity:1"
         inkscape:connector-curvature="0"
         id="path16"
         d="M 18,35 C 27.374,35 35,27.374 35,18 35,8.626 27.374,1 18,1 8.626,1 1,8.626 1,18 1,27.374 8.626,35 18,35 Z"
         stroke="var(--local-primary)" /></g></g></svg>
